X:1
T:Title
%%score { ( 1 3 4 ) | ( 2 5 6 ) }
L:1/8
M:4/4
K:Bb
V:1 treble nm="Grand Piano"
V:3 treble 
V:4 treble 
V:2 bass 
V:5 bass 
V:6 bass 
V:1
 z4 z2[Q:1/4=100] [DF]2 | [DF]>[B,D] [DF]>[DB] [Fd]3 [Fc] | [Gc]>[GB] [GB]>[EG] [DF]3 [DF] | %3
 [DF]>[B,D] [DF]>[EB] [=EB]>[EG] [EA]>[EB] | [Ec]6- [Ec]>[F_d] | [Fd]>[Ge] [Fd]>c B3 B | %6
 B>A B>G [DF]3 [DF] | G>A B>[Ge] [Ae]>d d>c |[M:3/4] [DB]6 |[M:1/4] B2 |[M:4/4] B6 z2 | [DF]6 z2 | %12
 d6 z2 |[M:3/4] [Ec]6 |[M:1/4] c>_d |[M:4/4] d2 c2 B2 =B>B | [Gc]2 [GB]2 [GB]2 G2 | F d2 e d2 c2 | %18
[M:3/4] [DB]6 |] %19
V:2
 z4 z2 [B,,B,]2 | [B,,B,]>[B,,F,] [B,,B,]>[B,,B,] [B,,B,]3 [D,B,] | %2
 [E,G,]>[E,E] [E,E]>[E,B,] [B,,B,]3 [B,,B,] | %3
 [B,,B,]>[B,,F,] [B,,B,]>[B,,B,] [C,G,]>[C,B,] [C,A,]>[C,G,] | [F,A,]6- [F,A,]>[F,A,] | %5
 [B,,B,]>[B,,B,] [B,,B,]>[F,B,E] [G,B,D]3 [G,B,D] | %6
 [E,G,E]>[E,G,E] [E,G,E]>[E,B,E] [B,,B,]3 [B,,B,] | %7
 [E,B,E]>[E,G,E] [E,G,E]>[C,C] [F,C]>[F,B,F] [F,A,F]>[F,A,E] |[M:3/4] [B,,F,]6 | %9
[M:1/4][K:treble] _A2 |[M:4/4] G6[K:bass] z2 | B,2 B,,2 B,,2[K:treble] F2 | =E6[K:bass] z2 | %13
[M:3/4] [F,A,]2 F,2 F,2 |[M:1/4][K:treble] [F,A,F]>[F,A,F] | %15
[M:4/4] [B,F]2 [A,EF]2 [G,DG]2 [G,DF]>[G,DF] | [E,E]2 [E,E]2 [E,E]2 [=E,B,_D]2 | %17
 [F,B,D] [F,B,F]2 [F,B,G] [F,B,F]2 [F,A,E]2 |[M:3/4] [B,,B,]6 |] %19
V:3
 x8 | x8 | x8 | x8 | x8 | x8 | x8 | x8 |[M:3/4] x6 |[M:1/4] x2 |[M:4/4] z2 B,2 z A [GB]>G | %11
 z2 B,2 B,2 d2 | z2 G,2 z c [=EG]>[Ed] |[M:3/4] z2 A,2 A,2 |[M:1/4] x2 |[M:4/4] x8 | x8 | x8 | %18
[M:3/4] x6 |] %19
V:4
 x8 | x8 | x8 | x8 | x8 | x8 | x8 | x8 |[M:3/4] x6 |[M:1/4] x2 |[M:4/4] z4 B,2 z2 | x8 | %12
 z4 G,2 z2 |[M:3/4] x6 |[M:1/4] x2 |[M:4/4] x8 | x8 | x8 |[M:3/4] x6 |] %19
V:5
 x8 | x8 | x8 | x8 | x8 | x8 | x8 | x8 |[M:3/4] x6 |[M:1/4][K:treble] x2 | %10
[M:4/4] z2[K:bass] E,2 z ^F z z/ E/ | x6[K:treble] x2 | z2[K:bass] C,2 z =E [C,B,]2 |[M:3/4] x6 | %14
[M:1/4][K:treble] x2 |[M:4/4] x8 | x8 | x8 |[M:3/4] x6 |] %19
V:6
 x8 | x8 | x8 | x8 | x8 | x8 | x8 | x8 |[M:3/4] x6 |[M:1/4][K:treble] x2 | %10
[M:4/4] z4[K:bass] E,2 [E,B,]2 | x6[K:treble] x2 | z4[K:bass] C,2 z2 |[M:3/4] x6 | %14
[M:1/4][K:treble] x2 |[M:4/4] x8 | x8 | x8 |[M:3/4] x6 |] %19

